X: 3267
T: Keddelflikkerdans
B:[[Notböcker/Melodier til gamle danske Almuedanse for Violin solo]]
O:Danmark
Z:Søren Bak Vestergaard
M: 2/4
L: 1/8
K: A
A|dd/f/ ee/f/|d2 (.f.A)|dd/f/ ee/f/|d2 f2|ee/a/ ff/a/|\
ee/a/ ff/a/|ee/a/ gg/b/|a2 z:| |:[K: D]A|ggff|e2 a2|\
gg ff|e/d/c/B/ AA|dd/f/ ee/f/|d2 (.f.A)|dd/f/ ee/c/|d2 z:|\
|:(F/G/)|A/G/F/G/ Ad|A2 (d/c/)d/f/|af/a/ ge/g/|\
fa/f/ e(!upbow!F/G/)|A/G/F/G/ Ad|A2 (.d.f)|af/d/ ge/c/|d2 z:|
(:musicend:)
(:music:)
